T: The Peeler's Away With My Daughter
R: jig
M: 6/8
L: 1/8
Q:1/2=80
K: Ador
|gf            |:"Am"eAA ABd  |ede "Em"g2 e      |"G"dBG GAG           |BGB dgf             |
"Am"eAA ABd    |ede "C"g2 a   |"Em"g2 e "G"dBG   |1 "Am"ABA A gf      :|2 "Am"ABA A z "G"B  |]
|:"Am"eaa age  |aga "Em"b2 a  |"G"g2 a "Am7"gdB  |"Gdim"gag "G"ged     |
"Am"aba age    |aga "G"b2 a   |"Em"g2 e "G"dBG   |1 "Am"ABA A z "G"B  :|2"Am" ABA A3        |]
